X:1
T:Elephant Tracks
T:Tom Brier https://musescore.com/user/29431458/scores/5196349 Transcribed from: Album: "Constellations", Track 2: "Elephant Tracks"
T:Elephant Tracks
C:Tom Brier
%%score { ( 1 3 4 ) | 2 }
L:1/8
Q:1/4=105
M:2/4
K:Gb
V:1 treble nm="Piano" snm="Pno."
V:3 treble 
V:4 treble 
V:2 bass 
V:1
!sfz!"^Moderato" z/[I:staff +1] G,/.[=A,=C][I:staff -1] z/[I:staff +1] G,/.[B,D] | %1
[I:staff -1] z/ G/.[=A=c] z/ G/.[Bd] | z/ g/.[=a=c']/ z/ g/.[bd']/ z/ G/ | %3
 .[=A=c]/ z/ G/.[Bd]/ z/ d'/[=ee']/b/ | [fd']/c'/b/[cfa]/- [cfa]/=a/[B=db]/f/ | %5
 [Bea]/g/f/[Be]/- [Be]/f/[Bg]/e/ | [B=df]/b/=g/[=Aef]/- [Aef]/f/[=c=c'] | [B=dfb]2 [_dfac'd']2 | %8
 z/[I:staff +1] G,/.[=A,=C][I:staff -1] z/[I:staff +1] G,/.[B,D] | %9
[I:staff -1] z/ G/.[=A=c] z/ G/.[Bd] | z/ g/.[=a=c']/ z/ g/.[bd']/ z/ G/ | %11
 .[=A=c]/ z/ G/.[Bd]/ z/ d'/[=ee']/b/ | [fd']/c'/b/[cfa]/- [cfa]/=a/[B=db]/f/ | %13
 [Bea]/g/f/[=A=ce]/- [Ace]/f/g/a/ | [dgb]/d'/b/[=dga]/- [dga]/a/[cfb] |1 [GBdg]2 [gbd'g']2 :|2 %16
 [GBdg]2 [gbd'g'][Bb] |: (3!>!c'/d'/c'/ b/[faf']/- [faf']/b/[faf'] | %18
 (3!>!c'/d'/c'/ b/[ge'g']/- [ge'g']/b/[ge'g'] | (3!>!c'/d'/c'/ b/[a=d'a']/- [ad'a']/b/[ad'a'] | %20
 (3!>!c'/d'/c'/ b/-[be'g'b']/- [be'g'b']/g/-[gbe'g'] | [ff']/[aa'][g=c'e'g']/- [gc'e'g'][e=ac'e'] | %22
 [=c=c']/[ee'][dgbd']/- [dgbd'][ee'] | [fbd'f']/[dd'][d=gbd']/- [dgbd'][=ce=a=c'] | %24
 [Bdfb]2 [bd'f'b'][Bb] | (3!>!c'/d'/c'/ b/[faf']/- [faf']/b/[faf'] | %26
 (3!>!c'/d'/c'/ b/[ge'g']/- [ge'g']/b/[ge'g'] | (3!>!c'/d'/c'/ b/[a=d'a']/- [ad'a']/b/[ad'a'] | %28
 (3!>!c'/d'/c'/ b/-[be'g'b']/- [be'g'b']/g/-[gbe'g'] | [ff']/[aa'][g=c'e'g']/- [gc'e'g'][e=ac'e'] | %30
 [dd']/[gg'][G=c=dg]/- [Gcdg][Aa] | [Bdgb]/[dd'][Bcfb]/- [Bcfb][Aa] |1 [GBdg]2 [gbd'g'][Bb] :|2 %33
 [GBdg]2 [gbd'g']2 ||!sfz! z/[I:staff +1] G,/.[=A,=C][I:staff -1] z/[I:staff +1] G,/.[B,D] | %35
[I:staff -1] z/ G/.[=A=c] z/ G/.[Bd] | z/ g/.[=a=c']/ z/ g/.[bd']/ z/ G/ | %37
 .[=A=c]/ z/ G/.[Bd]/ z/ d'/[=ee']/b/ | [fd']/c'/b/[cfa]/- [cfa]/=a/[B=db]/f/ | %39
 [Bea]/g/f/[Be]/- [Be]/f/[Bg]/e/ | [B=df]/b/=g/[=Aef]/- [Aef]/f/[=c=c'] | [B=dfb]2 [_dfac'd']2 | %42
 z/[I:staff +1] G,/.[=A,=C][I:staff -1] z/[I:staff +1] G,/.[B,D] | %43
[I:staff -1] z/ G/.[=A=c] z/ G/.[Bd] | z/ g/.[=a=c']/ z/ g/.[bd']/ z/ G/ | %45
 .[=A=c]/ z/ G/.[Bd]/ z/ d'/[=ee']/b/ | [fd']/c'/b/[cfa]/- [cfa]/=a/[B=db]/f/ | %47
 [Bea]/g/f/[=A=ce]/- [Ace]/f/g/a/ | [dgb]/d'/b/[=dga]/- [dga]/a/[cfb] | %49
 [GB!courtesy!_dg]2 [gbd'g']2 |:[K:Cb] z/ e/g/c'/ e'>d'- | d'c'- c'<b | %52
 [cfa]/c'[cfa]/- [cfa]/g/e/c/ | A/[=Fe][_FGBe]/- [FGBe]/B/[Fd] | [EAc]/e[EAd]/- [EAd]/c/A/G/ | %55
 =F/[Ace][FAcd]/- [FAcd]/c/[FA]/=A/ | B/gc/ a/b/[ca] | [Bg][Bb]/[dd']/- [dd'][=d=d'] | %58
 z/ e/g/c'/ e'>d'- | d'c'- c'<b | [cfa]/c'[cfa]/- [cfa]/g/e/c/ | A/[=Fce][_FBd]/- [FBd]/g/e/d/ | %62
 ce/f/ g/c'/b/__b/ | a/c/f/a/ c'/[c__a]f/ | [eg]/[cc']c/ e/[GBd]e/ |1 c/G/A/=A/ B/d/[Gg] :|2 %66
 [EGc][cc'] [Bb]/[cc']c/ |: [ac']/f/c/[=gb]/ f/B/[_g__b]/f/ | __B/[fa]/c/A/ [ac']/f/c/[ea]/ | %69
 c/A/[eg]/c/ G/[=d=f]/c/=F/ | [fa]/c/A/[Gceg]/- [Gceg]/[Aa]/[cc']/[ee']/ | %71
 [d'g']/b/g/[d'__g']/ b/__g/[d'f']/b/ | f/[fb]/d/B/ [be']/g/e/[gd']/ | e/d/[gc']/e/ c/[gd']/e/d/ | %74
 [c'e']/g/c'/[gd']/- [gd']/e'/[gd'] | [ac']/f/c/[=gb]/ f/B/[_g__b]/f/ | %76
 __B/[fa]/c/A/ [ac']/f/c/[ea]/ | c/A/[eg]/c/ G/[=d=f]/c/=F/ | %78
 [fa]/c/A/[Gceg]/- [Gceg]/[Aa]/[cc']/[ee']/ | [d'g']/b/g/[d'=g']/ b/=g/[d'a']/b/ | %80
 a/[fb]/d/B/ [be']/g/e/[cegc']/- | [cegc']/[ee']c'/ [=d=f=d']/c'/[_d_d']/[cegc']/- |1 %82
 [cegc']/!8va(!{/b'}(c''/c')!8va)!{/b} (c'/c)c/ :|2 [cegc']2 .[c'e'g'c'']2 |] %84
V:2
 [=D,,=A,,=D,] z [_D,,_B,,_D,] z | [=D,=A,=D] z [_D,_B,_D] z | %2
[I:staff -1] !>![=D=A=d]>[_D_B_d][I:staff +1] z !>![=D,=A,=D]- | %3
 [D,A,D]/[_D,_B,_D] z/ [G,,G,][=G,,=G,] | [A,,A,][F,A,D] [D,,D,][=D,,=D,]/E,,/- | %5
 [E,,G,][G,B,E] [G,,G,][G,B,E] | [F,,F,][F,B,=D]/F,,/- [F,,=A,][F,A,=CE] | %7
 [B,,B,]>D,,- [D,,F,][D,,D,] | [=D,,=A,,=D,] z [_D,,_B,,_D,] z | [=D,=A,=D] z [_D,_B,_D] z | %10
[I:staff -1] !>![=D=A=d]>[_D_B_d][I:staff +1] z !>![=D,=A,=D]- | %11
 [D,A,D]/[_D,_B,_D] z/ [G,,G,][=G,,=G,] | [A,,A,][F,A,D] [D,,D,][=D,,=D,]/E,,/- | %13
 [E,,G,][G,B,E] [=C,,=C,][G,=A,=CE] | [D,,D,][G,B,D] [__E,,__E,][D,,D,]/G,,/- |1 %15
 [G,,G,][D,,D,] [G,,,G,,]2 :|2 [G,,G,][D,,D,] [G,,,G,,]2 |: %17
 [F,,A,][F,A,B,=D] [B,,,B,,][F,A,B,D]/E,,/- | [E,,G,][G,B,E] [B,,,B,,][G,B,E]/=D,,/- | %19
 [D,,F,][F,A,B,=D] [B,,,B,,][F,A,B,D]/E,,/- | [E,,G,][G,B,E] [G,,G,][G,B,E] | %21
 [=C,,=C,].[G,=A,=CE] [G,A,CE][C,,C,] | [D,,D,][G,B,D] [G,,G,][D,G,B,] | %23
 [F,,F,][F,B,D] [=G,,=G,][=A,,=A,] | [B,,B,][F,,F,]/[D,,D,]/ [B,,,B,,]>F,,- | %25
 [F,,A,][F,A,B,=D] [B,,,B,,][F,A,B,D]/E,,/- | [E,,G,][G,B,E] [B,,,B,,][G,B,E]/=D,,/- | %27
 [D,,F,][F,A,B,=D] [B,,,B,,][F,A,B,D]/E,,/- | [E,,G,][G,B,E] [G,,G,][G,B,E] | %29
 [=C,,=C,].[G,=A,=CE] [G,A,CE][C,,C,] | [D,,D,][G,B,D] [=D,,=D,][D,^F,=A,=C] | %31
 [D,,D,][D,G,B,] [E,,E,][F,,F,] |1 [G,,G,][D,,D,]/[B,,,B,,]/ [G,,,G,,]>F,, :|2 %33
 [G,,G,][D,,D,]/[B,,,B,,]/ [G,,,G,,]2 || [=D,,=A,,=D,] z [_D,,_B,,_D,] z | %35
 [=D,=A,=D] z [_D,_B,_D] z |[I:staff -1] !>![=D=A=d]>[_D_B_d][I:staff +1] z !>![=D,=A,=D]- | %37
 [D,A,D]/[_D,_B,_D] z/ [G,,G,][=G,,=G,] | [A,,A,][F,A,D] [D,,D,][=D,,=D,]/E,,/- | %39
 [E,,G,][G,B,E] [G,,G,][G,B,E] | [F,,F,][F,B,=D] [F,,=A,][F,A,=CE] | [B,,B,]>D,,- [D,,F,][D,,D,] | %42
 [=D,,=A,,=D,] z [_D,,_B,,_D,] z | [=D,=A,=D] z [_D,_B,_D] z | %44
[I:staff -1] !>![=D=A=d]>[_D_B_d][I:staff +1] z !>![=D,=A,=D]- | %45
 [D,A,D]/[_D,_B,_D] z/ [G,,G,][=G,,=G,] | [A,,A,][F,A,D] [D,,D,][=D,,=D,]/E,,/- | %47
 [E,,G,][G,B,E] [=C,,=C,][G,=A,=CE] | [D,,D,][G,B,D] [__E,,__E,][D,,D,]/G,,/- | %49
 [G,,G,][D,,D,] [G,,,G,,]>=B,,,- |:[K:Cb] [C,,E,][G,CE] [G,,G,][G,CE] | %51
 [=G,,=G,][G,B,D] [A,,A,][_G,,_G,] | [F,,C,F,][F,A,C] [E,,E,][E,G,C] | %53
 [D,,D,][=F,A,CD] [G,,G,][=G,,=G,] | [A,,A,][E,A,C] [A,,A,][A,,G,] | %55
 [A,,=F,][F,A,C] [D,,D,][F,A,C] | [G,,G,][E,,E,] [D,,D,][=F,,=F,] | %57
 [G,,G,][F,,F,] [D,,D,][G,,,G,,] | [C,,C,][G,CE] [G,,G,][G,CE] | %59
 [=G,,=G,][G,B,D] [A,,A,][_G,,_G,] | [F,,C,F,][F,A,C] [E,,E,][E,G,C] | %61
 [D,,D,][=F,A,CD] [G,,G,][G,B,DF] | [C,C][__B,,__B,] [G,B,CE][B,,B,] | %63
 [A,,A,][C,C] [__A,CF][__A,,A,] | [G,,G,][E,,E,] [D,,D,][G,,G,] |1 [C,C]2 [G,B,D][G,,G,] :|2 %66
 [C,E,G,C][C,,G,,C,] [D,,A,,D,][E,,B,,E,] |: [F,,C,F,][A,CF] [C,,C,][A,CF] | %68
 [F,,F,][A,CF] [D,,D,][=D,,=D,] | [E,,E,][G,CE] [G,,G,][G,CE] | [C,,C,][G,CE] [E,,E,][G,CE] | %71
 [D,,D,][G,B,DF] [G,,,G,,][G,B,DF] | [D,,D,][G,B,DF] [G,,,G,,][G,B,DF] | %73
 [C,,C,][G,CE] [A,,A,][__A,,__A,] | [G,,G,][C,C] [B,,B,][__B,,__B,]/F,,/- | %75
 [F,,A,][A,CF] [C,,C,][A,CF] | [F,,F,][A,CF] [D,,D,][=D,,=D,] | [E,,E,][G,CE] [G,,G,][G,CE] | %78
 [C,,C,][G,CE] [E,,E,][G,CE] | [D,,D,][G,B,DF] [G,,,G,,][G,B,DF] | %80
 [D,,D,][G,B,DF] [G,,,G,,][G,B,DF] | [C,,C,][G,,G,] [A,,A,][B,,B,] |1 %82
 [G,CE][C,G,C] [__B,,__B,][G,,G,] :|2 [G,CE]>C,,- .[C,,G,,E,]2 |] %84
V:3
 x4 | x4 | x4 | x4 | x4 | x4 | x4 | x4 | x4 | x4 | x4 | x4 | x4 | x4 | x4 |1 x4 :|2 x4 |: x4 | x4 | %19
 x4 | x4 | x4 | x4 | x4 | x4 | x4 | x4 | x4 | x4 | x4 | x4 | x4 |1 x4 :|2 x4 || x4 | x4 | x4 | x4 | %38
 x4 | x4 | x4 | x4 | x4 | x4 | x4 | x4 | x4 | x4 | x4 | x4 |:[K:Cb] x2 z/ [eg]3/2 | %51
 [df]>[ce]- [ce][Bd] | x4 | x4 | x4 | x4 | x4 | x4 | x2 z/ [eg]3/2 | [df]>[ce]- [ce][Bd] | x4 | %61
 x4 | x4 | x4 | x4 |1 x4 :|2 x4 |: x4 | x4 | x4 | x4 | x4 | x4 | x4 | x4 | x4 | x4 | x4 | x4 | x4 | %80
 x4 | x4 |1 x/!8va(! x3/2!8va)! x2 :|2 x4 |] %84
V:4
 x4 | x4 | x4 | x4 | x4 | x4 | x4 | x4 | x4 | x4 | x4 | x4 | x4 | x4 | x4 |1 x4 :|2 x4 |: x4 | x4 | %19
 x4 | x4 | x4 | x4 | x4 | x4 | x4 | x4 | x4 | x4 | x4 | x4 | x4 |1 x4 :|2 x4 || x4 | x4 | x4 | x4 | %38
 x4 | x4 | x4 | x4 | x4 | x4 | x4 | x4 | x4 | x4 | x4 | x4 |:[K:Cb] x4 | x4 | x4 | x4 | x4 | x4 | %56
 x4 | x4 | x4 | x4 | x4 | x4 | x4 | x4 | x4 |1 x4 :|2 x4 |: x4 | x4 | x4 | x4 | x4 | x4 | x4 | x4 | %75
 x4 | x4 | x4 | x4 | x4 | x4 | x4 |1 x/!8va(! x3/2!8va)! x7/4 x/4- :|2 x4 |] %84

